!!!OTL: ES WAR EIN REICHER SCHLAECHTERSMANN
!!!ARE: Europa, Mitteleuropa, Deutschland, Brandenburg
!!!SCT: E0120
!!!YEM: Copyright 1995, estate of Helmut Schaffrath.
**kern
*ICvox
*Ivox
*M4/4
*k[]
*a:
{8a
8b
=1
8ccn
8dd
8ccn
8b
4a
8b
8ccn
=2
8dd
8ee
8dd
8ccn
4b}
{4dd
=3
4ee
4ee
4a
4dd
=4
4ccn
4b
4a}
{4a
=5
4.ee
8dd
4ee
4ffn
=6
4.dd
8ccn
4dd}
{4ee
=7
4.ccn
8b
4a
4dd
=8
4ccn
4b
4a}
{4a
=9
4.ee
8dd
4ee
4ffn
=10
4.dd
8ccn
4dd}
{4ee
=11
4.ccn
8b
4a
4dd
=12
4ccn
4b
4a}
==
!!!AGN: erzaehlendes Volks - Lied, Schalk -, Schelmen - Lied, Liebe     Ballade ?
!!!ONB: ESAC (Essen Associative Code) Database: ERK1
!!!AMT: simple quadruple
!!!AIN: vox
!!!EED: Helmut Schaffrath
!!!EEV: 1.0
*-
!!!title: @{OTL} [@{SCT}]
